X:1
T:A minor, C major Samuel Holyoke, 1791
T:Charles Wesley, 1759 86. 86. 86. 86. (C. M. D.)
T:Andover Transcribed from Harmonia Americana, 1791.
%%score [ 1 2 3 ]
L:1/8
Q:1/4=80
M:4/4
K:C
V:1 treble nm="Treble" snm="Tr."
V:2 treble-8 nm="Tenor" snm="T."
V:3 bass nm="Bass" snm="B."
V:1
 E2 | A2 B2 cB/A/ (3cBe | dc BA ^G3 G | E3 A !fermata!^G2 z G | A4 z2 G2 | A2 G2 F2 E2 | %6
w: 1.~And|let this fee- * * ble * *|bo- * dy * fail, And|let it faint and|die, My|soul shall quit this|
w: 2.~In|hope of that * * im- * *|mor- * tal * crown, I|now the cross sus-|tain, And|glad- ly wan- der|
 e2 d2 !fermata!^c2 A2 | e2 d2 c2 B2 | c4 z2 c2 | ed cd ed cd | ef ed e3 d | ec gf ag fe | %12
w: mourn- ful vale, And|soar to worlds on|high, Shall|join * the * dis- * em- *|bo- * died * saints, And|find * its * long * sought *|
w: up and down, And|smile at toil and|pain: I|suf- * fer * out * my *|three- * score * years, Till|my * De- * li- * verer *|
 d4 z2 d2 | g3 d d3 f | ed ^c2 !fermata!d2 d2 | ed/c/ gf/e/ ag/f/ ed | e8 |] %17
w: rest, That|on- ly bliss for|which * it pants, In|the * * Re- * * dee- * * mer's *|breast.|
w: come, And|wipe a- way his|ser- * vant's tears, And|take * * his * * ex- * * ile *|home.|
V:2
 B2 | c2 ^G2 AB/c/ (3edc | BA dc B3 B | A3 c !fermata!B2 z B | c4 z2 E2 | F2 G2 AB c2 | %6
w: 3.~I|see a world * * of * *|spi- * rits * bright, Who|reap the plea- sures|there;; They|all are robed * in|
w: 4.~O|what are all * * my * *|suf- * ferings * here, If|Lord, thou count me|meet With|that en- rap- * tured|
 c2 B2 !fermata!E2 E2 | c2 B2 A2 G2 | G4 z2 G2 | GF EF GF EF | GF cB G3 B | ce ed fe dc | %12
w: pu- rest white, And|con- quering palms they|bear:~ A-|dorned * by * their * Re- *|dee- * mer's * grace They|close * pur- * sue * the *|
w: host t'ap- pear, And|wor- ship at thy|feet! Give|joy * or * grief, * give *|ease * or * pain, Take|life * or * friends * a- *|
 B4 z2 B2 | B3 B B3 d | cB A2 !fermata!A2 B2 | cd/e/ ea/g/ fe/d/ cB | c8 |] %17
w: Lamb, And|eve- ry shi- ning|front * dis- plays The'un-|ut- * * ter- * * a- * * ble *|name.|
w: way, I|come, to find them|all * a- gain In|that * * e- * * ter- * * nal *|day.|
V:3
 E,2 | A,,2 E,2 A,2 C,2 | D,2 D,2 E,3 E, | A,,3 A,, !fermata!E,2 z E, | A,,4 z2 C,2 | %5
 F,2 E,2 D,2 C,2 | C,2 G,2 !fermata!A,2 A,2 | C,2 D,2 E,F, G,2 | C,4 z2 [C,C]2 | %9
 C,D, E,D, C,D, E,D, | C,D, E,G, C3 G, | CA, E,F, D,E, F,2 | G,4 z2 [G,,G,]2 | %13
 [G,,G,]3 [G,,G,] [G,,G,]3 [G,,G,] | [G,,G,]2 [A,,A,]2 !fermata![D,,D,]2 [G,,G,]2 | %15
 [C,C]2 [E,,E,]2 [F,,F,]2 [G,,G,]2 | [E,,C,C]8 |] %17

